X:2741
T:Hura for the Bonnets of Blue
O:england
M:6/8
L:1/8
S:Armitt MS
N:Key signature is given as D flat on second line down, A flat in 3rd
N:space down. .Lower part of bottom stave is missing, so note lengths in
N:last  5 bars and last 4 notes are guesswork.
K:B_ major
D|BcB (def)|FGF FGA|B2g fdB|(c3c2)F|BcB (def)|FGF F2g|fed cBc|(B3B2):||:
B|(ABc) (cdc)|(F3F2)B|(ABc) cd=e)|f3fe|dcd BGA|B2cd2g|(gec) (BcA)|(G3G2)
F|BcB"" dfd|(B3B2)F|B2g gdB|(c3c2)e|dcd Bcd|(efg)f2g|fed c2c|(B3B2)||


